X:1
T:[ID 2-43]
T:[ID 2-43]
T:Bezeichnung standardisiert: Polonaise Polonaise In dieser Quelle auch als: Poloniose
T:Urheber unbekannt Datum in der hier transkribierten schriftlichen Quelle: 1767
C:Urheber unbekannt
C:Datum in der hier transkribierten schriftlichen Quelle: 1767
L:1/8
M:3/4
K:D
V:1 treble 
V:1
 dd/e/ f2 f2 | e/g/f/e/ dAFD | d/e/f/g/ a2 a2 | g/f/g/e/ f2 f2 :: (fa)(af)(fd) | gb/g/ e2 e2 | %6
 (eg)(ge)(eg) | fa/f/ d2 d2 | (Ad)(df)(fd) | (Ae)(eg)(ge) | (df)(fa)(ge) | f/e/d/c/ d2 D2 :| %12

